X:1
T:Episcopus imponit manus
T:Jan Tollius
T:Episcopus imponit manus
C:Jan Tollius
%%score [ 1 2 3 ]
L:1/8
Q:1/4=60
M:4/4
K:C
V:1 treble nm="Soprano" snm="S"
V:2 treble nm="Alt" snm="A"
V:3 treble-8 nm="Bass" snm="B"
V:1
 z4 z2 z f | e>d e2 d2 D2 | ^F>G A>B ^cd A2 | A4 z2 D2 | ^F>G A>B ^cd c2 | d4 z2 B2 | %6
w: im-|po- nit ma- nus, E-|pi- sco- pus im- po- nit ma-|nus, E-|pi- sco- pus im- po- nit ma-|nus, De-|
 Bd c/B/A/G/ FE B>A | B/c/ d2 c B>B A2 | ^c3 c cd e2 | d2 z d eg ^f>f | g2 z a gf e>e | d4 z4 | %12
w: us lar- gi- * * * * tur gra- *|* * * * * ti- am,|De- us be- ne- di-|cit po- ten- ti dex- te-|ra, po- ten- ti dex- te-|ra,|
 z4 A/B/c/d/ ef | e2 A2 z d2 f | ed e2 d3 c/B/ | AGG^F G4 | z e2 e dc B2 | e3 d/c/ BA B2 | A8 || %19
w: di- * * * * gni-|ta- tem, De- us|tri- bu- it di- * *|* * gni- ta- tem,|De- us tri- bu- it|di- * * * gni- ta-|tem.|
 z d d2 A2 z E | F2 E e2 d e2 | ^f3 f g>g f2 | z2 e>f edd^c | d4 z d d2 | A2 z E F2 Ee- | %25
w: Vos e- stis sal|ter- rae. Quod si sal|e- va- nu- e- rit,|in quo sa- li- e- *|tur? Vos e-|stis sal ter- rae. Quod|
 ed e2 ^f3 f | g>g ^f2 z2 e>f | edd^c d4 | z e ee/e/ dc B2 | B2 ^c/d/ e2 d c>d | B c2 B c4 | %31
w: _ si sal e- va-|nu- e- rit, in quo|sa- li- e- * tur?|Ad ni- hi- lum va- let ul-|tra, ni- si ut mit- ta- tur|fo- * ras, _|
 z2 G2 G3 G | G3 G G3 G | c3 c B4 | z g e>d cG z g | e>d cG c>d e>d | c/B/A/G/ A>A ^G4- | G4 z4 || %38
w: et con- cul-|ce- tur ab ho-|mi- ni- bus,|et con- cul- ce- tur et|con- cul- ce- tur ab ho- mi- *|* * * * * ni- bus.|_|
[M:6/4][Q:1/4=90] z2 A3 B cd e3 d/c/ | B/c/ d2 c B2 A6 | z2 A3 B cd e3 d/c/ | B/c/ d2 c B2 A4 f2 | %42
w: Vos e- stis lux mun- * *|* * * * * di:|Vos e- stis lux mun- * *|* * * * * di: sic|
 f3 f f2 f2 f3 c | e2 d2 d3 ^c/B/ c2 d2 | z2 z2 A2 AB cd e2 | f2 e3 e A4 A2 | A3 A A2 z2 z2 z2 | %47
w: lu- ce- at sic lu- ce-|at lux ve- * * * stra|co- ram _ _ _ _|ho- mi- ni- bus, sic|lu- ce- at|
 z2 z2 A2 e4 A2 | z2 D2 DE FG AB ^c2 | d2 d2 ^c2 d4 c2 | ^c3 c c2 d2 d3 d | d2 e4 dc B2 A2 | %52
w: lux ve- stra|co- ram _ _ _ _ _ _|ho- mi- ni- bus, ut|vi- de- ant ut vi- de-|ant o- pe- ra ve- stra|
[M:3/4] ^G4 G2 |[M:4/4][Q:1/4=60] ^c>d e/d/c/B/ A/G/F/E/ F>F | E2 A>G c2 B2 | d>d a>g f2 e2 | %56
w: bo- na,|et glo- ri- * * * * * * * * fi-|cent pa- trem ve- strum,|qui in cae- * * lis|
 d4 z A2 A | d3 D A2 F>E | A2 G2 z d>Af- | f/e/ d2 ^c d4- | d8 |] %61
w: est. et glo-|ri- fi- cent pa- trem|ve- strum, qui in cae-|* * * lis est.|_|
V:2
 z2 D2 ^F>G A>B | ^cd c2 d4 | z4 z F E>D | E2 D2 D2 ^F>G | A>B ^cd G2 G2 | z2 A2 Ac B/A/G/F/ | %6
w: E- pi- sco- pus im-|po- nit ma- nus,|im- po- nit|ma- nus, E- pi- sco-|pus im- po- nit ma- nus,|De- us lar- gi- * * *|
 ED E>D C/D/E/F/ G/F/E/F/ | G/A<BA/ A2 ^G A2 | z2 E3 E EF | G2 ^F2 z dcA | B>B AA Bd ^c>c | %11
w: * tur gra- * * * * * * * * *|* * * * * ti- am,|De- us be- ne-|di- cit po- ten- ti|dex- te- ra, po- ten- ti dex- te-|
 d2 A3 A GF | E2 A3 G/F/ ED | E2 D2 A3 B | cd ^c2 z2 D/E/F/G/ | AB A2 D4 | A3 c BA B2 | %17
w: ra, De- us tri- bu-|it di- * * * gni-|ta- tem, De- us|tri- bu- it di- * * *|* gni- ta- tem,|De- us tri- bu- it|
 c3 B/A/ ^GAAG | A8 || z4 z A A2 | D2 z A, _B,2 A,A- | AA AA/A/ _B>B A2 | z E>F G2 F E2 | D4 z4 | %24
w: di- * * * gni- ta- *|tem.|Vos e-|stis sal ter- rae. Quod|_ si sal e- va- nu- e- rit,|in quo sa- li- e-|tur?|
 z A A2 D2 z A, | _B,2 A, A2 A AA/A/ | _B>B A2 z E>FG- | GF E2 D4 | z c cc/c/ BA ^G2 | %29
w: Vos e- stis sal|ter- rae. Quod si sal e- va-|nu- e- rit, in quo sa-|* li- e- tur?|Ad ni- hi- lum va- let ul-|
 ^G2 z2 E/F/ =G2 F | E>E D2 E4 | z2 z G E>D CG, | z G E>D CG, C>B, | A,F, C>D E4 | z2 z G E>D CG, | %35
w: tra, ni- si ut mit-|ta- tur fo- ras,|et con- cul- ce- tur|et con- cul- ce- tur ab ho-|mi- ni- bus, _ _|et con- cul- ce- tur|
 z G E>D CG, C>B, | A,F, C>D E4- | E4 z4 ||[M:6/4] D3 E FG A3 G/F/ EF | G>E ^F/G/ A2 ^G A6 | %40
w: et con- cul- ce- tur ab ho-|mi- ni- bus. _ _|_|Vos e- stis lux mun- * * * *|* * * * * * di:|
 D3 E FG A2- AG/F/ EF | G>E ^F/G/A- A^G A4 A2 | A3 A A2 z2 A2 A2- | AE G2 F2 E4 D2 | %44
w: Vos e- stis lux mun- * * * * *|* * * * * * * di: sic|lu- ce- at sic lu-|* ce- at lux ve- stra|
 D2 DE FG A3 G/F/ E2 | D2 E3 E D4 F2 | F3 F F2 F2 F3 C | E2 D2 D3 ^C/B,/ C2 D2 | %48
w: co- ram _ _ _ _ _ _ _|ho- mi- ni- bus, sic|lu- ce- at sic lu- ce-|at lux ve- * * * stra|
 D2 DE FG A3 G/F/ E2 | D2 E3 E D4 E2 | E3 E E2 B2 B3 B | B2 c4 BA ^G2 A2 |[M:3/4] B4 B2 | %53
w: co- ram _ _ _ _ _ _ _|ho- mi- ni- bus, ut|vi- de- ant ut vi- de-|ant o- pe- ra ve- stra|bo- na,|
[M:4/4] A>B c/B/A/G/ F/E/D/C/ D>D | ^C2 F2- FE G2 | F2 F>G A2 G2 | ^F4 A>B c/B/A/G/ | %57
w: et glo- ri- * * * * * * * * fi-|cent pa- * trem ve-|strum, qui in cae- lis|est. et glo- ri- * * *|
 F/E/D/C/ D>D ^C2 z2 | F>E G2 F2 F>G | A2 G2 ^F4- | F8 |] %61
w: * * * * * fi- cent|pa- trem ve- strum, qui in|cae- lis est.|_|
V:3
 D2 ^F>G A>B ^cd | A2 A2 z4 | D2 ^F>G A>B ^cd | ^c2 d2 z4 | z2 z F E>D E2 | D4 z4 | %6
w: E- pi- sco- pus im- po- nit|ma- nus,|E- pi- sco- pus im- po- nit|ma- nus,|im- po- nit ma-|nus,|
 z2 A2 Ac B/A/G/F/ | ED E3 E A2 | A3 A AB c2 | G2 z d cB A>A | G2 z F ED A>A | D2 z d2 f ed | %12
w: De- us lar- gi- * * *|* tur gra- ti- am,|De- us be- ne- di-|cit po- ten- ti dex- te-|ra, po- ten- ti dex- te-|ra, De- us tri- bu-|
 e2 f3 e/d/ ^cd | d^c d2 d3 d | cB A2 _B3 A/G/ | ^FG D2 G4 | z8 | z2 A/B/c/d/ ef e2 | A8 || %19
w: it di- * * * gni-|ta- * tem, De- us|tri- bu- it di- * *|* gni- ta- tem,||di- * * * * gni- ta-|tem.|
 z2 z d d2 A2 | z D ^C2 D d2 ^c | d2 dd G>G d2 | A>B AG A4 | D4 z2 z d | d2 A2 z D ^C2 | %25
w: Vos e- stis|sal ter- rae. Quod si|sal e- va- nu- e- rit,|in quo sa- li- e-|tur? Vos|e- stis sal ter-|
 D d2 ^c d2 dd | G>G d2 A>B AG | A4 D4 | z A AA/A/ GF E2 | E2 A/B/ c2 B A>F | G4 C4 | %31
w: rae. Quod si sal e- va-|nu- e- rit, in quo sa- li-|e- tur?|Ad ni- hi- lum va- let ul-|tra, ni- si ut mit- ta- tur|fo- ras,|
 z g e>d cG z g | e>d cG c>d e>d | c/B/A/G/ A>A ^G4 | z2 C2 C3 C | C3 C C3 C | F3 F E4- | E4 z4 || %38
w: et con- cul- ce- tur et|con- cul- ce- tur ab ho- mi- *|* * * * * ni- bus,|et con- cul-|ce- tur ab ho-|mi- ni- bus.|_|
[M:6/4] z2 z2 A3 B cd e2- | ed/c/ BA e2 A6 | z2 z2 A3 B cd e2- | ed/c/ BA e2 A4 d2 | %42
w: Vos e- stis lux mun-|* * * * * * di:|Vos e- stis lux mun-|* * * * * * di: sic|
 d3 d d2 z2 z2 z2 | z2 z2 D2 A4 D2 | z2 D2 DE FG AB ^c2 | d2 d2 ^c2 d4 D2 | D3 D D2 z2 A2 A2- | %47
w: lu- ce- at|lux ve- stra|co- ram _ _ _ _ _ _|ho- mi- ni- bus, sic|lu- ce- at sic lu-|
 AE G2 F2 E4 D2 | z2 z2 D2 DE FG A2 | _B2 A3 A D4 A2 | A3 A A2 G2 G3 G | G2 c4 GA E2 F2 | %52
w: * ce- at lux ve- stra|co- ram _ _ _ _|ho- mi- ni- bus, ut|vi- de- ant ut vi- de-|ant o- pe- ra ve- stra|
[M:3/4] E4 E2 |[M:4/4] z A2 A d3 D | A2 F>E A2 G2 | z d>A f>e d2 ^c | d4 ^f>g a/g/f/e/ | %57
w: bo- na,|et glo- ri- fi-|cent pa- trem ve- strum,|qui in cae- * * lis|est. et glo- ri- * * *|
 d/c/_B/A/ B>B A2 d>c | f2 e2 d>d a>g | f2 e2 d4- | d8 |] %61
w: * * * * * fi- cent pa- trem|ve- strum, qui in cae- *|* lis est.|_|

